X:270
T:The Swallow
R:reel
S:Kevin Finucane
N:MIko Russell's favorite
Z:id:hn-reel-718
M:C|
K:G
d3e dBAG|EAAG ABcA|~d3e dBAG|1 EGGF GABc:|2 EGGF G2Bd||
|:g2fg edBd|eaag agef|g2fg edBd|1 egfa g2ef:|2 egfa gedB||
